art/standard/gamepad/ouya/rightxy.svg

<svg width="100px" height="100px" preserveAspectRatio="none" version="1.1" viewBox="0 0 100 100" xmlns="http://www.w3.org/2000/svg">
 <g fill-rule="evenodd">
  <circle cx="50" cy="50" r="46.25"/>
  <circle cx="50" cy="50" r="41.4" fill="#242424"/>
  <circle cx="50" cy="50" r="35.6" fill="#1d1d1d"/>
  <circle cx="50" cy="50" r="30.6" fill="#3b3b3b" stop-color="#000000" style="-inkscape-stroke:none;font-variation-settings:normal"/>
  <circle cx="50" cy="50" r="25" fill="#535353"/>
 </g>
 <path d="m50.55 37.2h-8.65v24.8h4.45v-10.5h3.2l5.75 10.5h5.3l-6.6-10.95q2.8-0.4 4.25-2.2 1.5-1.8 1.5-4.5 0-2.1-0.75-3.5-0.8-1.35-2.1-2.15t-2.95-1.15-3.4-0.35m-0.8 10.55h-3.4v-6.75h3.8q0.85 0 1.75 0.1 0.85 0.1 1.6 0.45 0.75 0.3 1.2 0.95t0.45 1.8q0 1.2-0.5 1.9t-1.25 1q-0.8 0.35-1.75 0.45t-1.9 0.1z" fill="#8c8c8c"/>
</svg>

<svg xmlns="http://www.w3.org/2000/svg" version="1.1" xmlns:xlink="http://www.w3.org/1999/xlink" preserveAspectRatio="none" x="0px" y="0px" width="100px" height="100px" viewBox="0 0 100 100">
<defs/>

<g id="OUYA">
<g>
<g>
<g>
<path fill="#242424" stroke="none" d="
M 93.75 50.85
Q 93.75 50.4267578125 93.75 50 93.75 42.5279296875 91.55 35.95 88.4658203125 26.5951171875 80.95 19.05 68.1 6.25 50 6.25 31.9 6.25 19.1 19.05 6.3 31.9 6.3 50 6.3 68.1 19.1 80.9 31.9 93.7 50 93.7 68.1 93.7 80.95 80.9 93.4482421875 68.4017578125 93.75 50.85
M 83.05 50
Q 83.05 50.426953125 83.05 50.85 82.746484375 63.953515625 73.35 73.35 63.65 83 50 83 36.3 83 26.65 73.35 16.95 63.65 16.95 50 16.95 36.3 26.65 26.6 36.3 16.9 50 16.9 63.65 16.9 73.35 26.6 77.634765625 30.884765625 80 35.95 83.05 42.3515625 83.05 50 Z"/>

<path fill="#3B3B3B" stroke="none" d="
M 83.05 50.85
Q 83.05 50.426953125 83.05 50 83.05 42.3515625 80 35.95 77.634765625 30.884765625 73.35 26.6 63.65 16.9 50 16.9 36.3 16.9 26.65 26.6 16.95 36.3 16.95 50 16.95 63.65 26.65 73.35 36.3 83 50 83 63.65 83 73.35 73.35 82.746484375 63.953515625 83.05 50.85
M 67.6 32.35
Q 69.3275390625 34.0658203125 70.65 35.95 74.95 42.0828125 74.95 50 74.95 50.427734375 74.9 50.85 74.644921875 60.603125 67.6 67.6 60.3 74.9 50 74.9 39.65 74.9 32.35 67.6 25.05 60.3 25.05 50 25.05 39.65 32.35 32.35 39.65 25 50 25 60.3 25 67.6 32.35 Z"/>

<path fill="#535353" stroke="none" d="
M 70.65 35.95
Q 69.3275390625 34.0658203125 67.6 32.35 60.3 25 50 25 39.65 25 32.35 32.35 25.05 39.65 25.05 50 25.05 60.3 32.35 67.6 39.65 74.9 50 74.9 60.3 74.9 67.6 67.6 74.644921875 60.603125 74.9 50.85 74.95 50.427734375 74.95 50 74.95 42.0828125 70.65 35.95
M 41.9 37.2
L 50.55 37.2
Q 52.3 37.2 53.95 37.55 55.6 37.9 56.9 38.7 58.2 39.5 59 40.85 59.75 42.25 59.75 44.35 59.75 47.05 58.25 48.85 56.8 50.65 54 51.05
L 60.6 62 55.3 62 49.55 51.5 46.35 51.5 46.35 62 41.9 62 41.9 37.2
M 46.35 47.75
L 49.75 47.75
Q 50.7 47.75 51.65 47.65 52.6 47.55 53.4 47.2 54.15 46.9 54.65 46.2 55.15 45.5 55.15 44.3 55.15 43.15 54.7 42.5 54.25 41.85 53.5 41.55 52.75 41.2 51.9 41.1 51 41 50.15 41
L 46.35 41 46.35 47.75 Z"/>

<path fill="#8C8C8C" stroke="none" d="
M 50.55 37.2
L 41.9 37.2 41.9 62 46.35 62 46.35 51.5 49.55 51.5 55.3 62 60.6 62 54 51.05
Q 56.8 50.65 58.25 48.85 59.75 47.05 59.75 44.35 59.75 42.25 59 40.85 58.2 39.5 56.9 38.7 55.6 37.9 53.95 37.55 52.3 37.2 50.55 37.2
M 49.75 47.75
L 46.35 47.75 46.35 41 50.15 41
Q 51 41 51.9 41.1 52.75 41.2 53.5 41.55 54.25 41.85 54.7 42.5 55.15 43.15 55.15 44.3 55.15 45.5 54.65 46.2 54.15 46.9 53.4 47.2 52.6 47.55 51.65 47.65 50.7 47.75 49.75 47.75 Z"/>
</g>
</g>

<g>
<path stroke="#1D1D1D" stroke-width="5" stroke-linejoin="round" stroke-linecap="round" fill="none" d="
M 83.05 50
Q 83.05 50.426953125 83.05 50.85 82.746484375 63.953515625 73.35 73.35 63.65 83 50 83 36.3 83 26.65 73.35 16.95 63.65 16.95 50 16.95 36.3 26.65 26.6 36.3 16.9 50 16.9 63.65 16.9 73.35 26.6 77.634765625 30.884765625 80.025 35.95 83.05 42.3515625 83.05 50 Z"/>
</g>

<g>
<path stroke="#000000" stroke-width="5" stroke-linejoin="round" stroke-linecap="round" fill="none" d="
M 93.75 50
Q 93.75 50.4267578125 93.75 50.85 93.4482421875 68.4017578125 80.95 80.9 68.1 93.7 50 93.7 31.9 93.7 19.1 80.9 6.3 68.1 6.3 50 6.3 31.9 19.1 19.05 31.9 6.25 50 6.25 68.1 6.25 80.95 19.05 88.4658203125 26.5951171875 91.575 35.95 93.75 42.5279296875 93.75 50 Z"/>
</g>
</g>
</g>
</svg>
